static/img/kroki/c18c72d243c1dcc46144e00a0874ab8f.svg

<?xml version="1.0" encoding="us-ascii" standalone="no"?><svg xmlns="http://www.w3.org/2000/svg" xmlns:xlink="http://www.w3.org/1999/xlink" contentStyleType="text/css" height="374px" preserveAspectRatio="none" style="width:659px;height:374px;" version="1.1" viewBox="0 0 659 374" width="659px" zoomAndPan="magnify"><defs/><g><!--class azure_machine_learning_code_version_base--><g id="elem_azure_machine_learning_code_version_base"><rect codeLine="23" fill="#3D176E" height="39.7891" id="azure_machine_learning_code_version_base" rx="2.5" ry="2.5" style="stroke:#000D19;stroke-width:0.5;" width="411" x="241.5" y="167.79"/><ellipse cx="256.5" cy="187.6845" fill="#ADD1B2" rx="11" ry="11" style="stroke:#181818;stroke-width:1.0;"/><path d="M259.4688,193.3252 Q258.8906,193.622 258.25,193.7627 Q257.6094,193.9189 256.9063,193.9189 Q254.4063,193.9189 253.0781,192.2783 Q251.7656,190.622 251.7656,187.497 Q251.7656,184.372 253.0781,182.7158 Q254.4063,181.0595 256.9063,181.0595 Q257.6094,181.0595 258.25,181.2158 Q258.9063,181.372 259.4688,181.6689 L259.4688,184.3877 Q258.8438,183.8095 258.25,183.5439 Q257.6563,183.2627 257.0313,183.2627 Q255.6875,183.2627 255,184.3408 Q254.3125,185.4033 254.3125,187.497 Q254.3125,189.5908 255,190.6689 Q255.6875,191.7314 257.0313,191.7314 Q257.6563,191.7314 258.25,191.4658 Q258.8438,191.1845 259.4688,190.6064 L259.4688,193.3252 Z " fill="#000000"/><text fill="#D9B8FF" font-family="Helvetica" font-size="17" lengthAdjust="spacing" textLength="369" x="275.5" y="193.5698">azure_machine_learning_code_version_base</text></g><!--class azure_machine_learning_workspace_code_version--><g id="elem_azure_machine_learning_workspace_code_version"><rect codeLine="26" fill="#3D176E" height="39.7891" id="azure_machine_learning_workspace_code_version" rx="2.5" ry="2.5" style="stroke:#000D19;stroke-width:0.5;" width="461" x="45.5" y="328.58"/><ellipse cx="60.5" cy="348.4745" fill="#ADD1B2" rx="11" ry="11" style="stroke:#181818;stroke-width:1.0;"/><path d="M63.4688,354.1152 Q62.8906,354.412 62.25,354.5527 Q61.6094,354.7089 60.9063,354.7089 Q58.4063,354.7089 57.0781,353.0683 Q55.7656,351.412 55.7656,348.287 Q55.7656,345.162 57.0781,343.5058 Q58.4063,341.8495 60.9063,341.8495 Q61.6094,341.8495 62.25,342.0058 Q62.9063,342.162 63.4688,342.4589 L63.4688,345.1777 Q62.8438,344.5995 62.25,344.3339 Q61.6563,344.0527 61.0313,344.0527 Q59.6875,344.0527 59,345.1308 Q58.3125,346.1933 58.3125,348.287 Q58.3125,350.3808 59,351.4589 Q59.6875,352.5214 61.0313,352.5214 Q61.6563,352.5214 62.25,352.2558 Q62.8438,351.9745 63.4688,351.3964 L63.4688,354.1152 Z " fill="#000000"/><text fill="#D9B8FF" font-family="Helvetica" font-size="17" lengthAdjust="spacing" textLength="419" x="79.5" y="354.3598">azure_machine_learning_workspace_code_version</text></g><!--class azure_proxy_resource--><g id="elem_azure_proxy_resource"><rect codeLine="29" fill="#3D176E" height="39.7891" id="azure_proxy_resource" rx="2.5" ry="2.5" style="stroke:#000D19;stroke-width:0.5;" width="224" x="335" y="7"/><ellipse cx="350" cy="26.8945" fill="#ADD1B2" rx="11" ry="11" style="stroke:#181818;stroke-width:1.0;"/><path d="M352.9688,32.5352 Q352.3906,32.832 351.75,32.9727 Q351.1094,33.1289 350.4063,33.1289 Q347.9063,33.1289 346.5781,31.4883 Q345.2656,29.832 345.2656,26.707 Q345.2656,23.582 346.5781,21.9258 Q347.9063,20.2695 350.4063,20.2695 Q351.1094,20.2695 351.75,20.4258 Q352.4063,20.582 352.9688,20.8789 L352.9688,23.5977 Q352.3438,23.0195 351.75,22.7539 Q351.1563,22.4727 350.5313,22.4727 Q349.1875,22.4727 348.5,23.5508 Q347.8125,24.6133 347.8125,26.707 Q347.8125,28.8008 348.5,29.8789 Q349.1875,30.9414 350.5313,30.9414 Q351.1563,30.9414 351.75,30.6758 Q352.3438,30.3945 352.9688,29.8164 L352.9688,32.5352 Z " fill="#000000"/><text fill="#D9B8FF" font-family="Helvetica" font-size="17" lengthAdjust="spacing" textLength="182" x="369" y="32.7798">azure_proxy_resource</text></g><!--class microsoft_resource--><g id="elem_microsoft_resource"><rect codeLine="32" fill="#3D176E" height="39.7891" id="microsoft_resource" rx="2.5" ry="2.5" style="stroke:#000D19;stroke-width:0.5;" width="200" x="7" y="167.79"/><ellipse cx="22" cy="187.6845" fill="#ADD1B2" rx="11" ry="11" style="stroke:#181818;stroke-width:1.0;"/><path d="M24.9688,193.3252 Q24.3906,193.622 23.75,193.7627 Q23.1094,193.9189 22.4063,193.9189 Q19.9063,193.9189 18.5781,192.2783 Q17.2656,190.622 17.2656,187.497 Q17.2656,184.372 18.5781,182.7158 Q19.9063,181.0595 22.4063,181.0595 Q23.1094,181.0595 23.75,181.2158 Q24.4063,181.372 24.9688,181.6689 L24.9688,184.3877 Q24.3438,183.8095 23.75,183.5439 Q23.1563,183.2627 22.5313,183.2627 Q21.1875,183.2627 20.5,184.3408 Q19.8125,185.4033 19.8125,187.497 Q19.8125,189.5908 20.5,190.6689 Q21.1875,191.7314 22.5313,191.7314 Q23.1563,191.7314 23.75,191.4658 Q24.3438,191.1845 24.9688,190.6064 L24.9688,193.3252 Z " fill="#000000"/><text fill="#D9B8FF" font-family="Helvetica" font-size="17" lengthAdjust="spacing" textLength="158" x="41" y="193.5698">microsoft_resource</text></g><!--class resource--><g id="elem_resource"><rect codeLine="35" fill="#3D176E" height="39.7891" id="resource" rx="2.5" ry="2.5" style="stroke:#000D19;stroke-width:0.5;" width="113" x="50.5" y="7"/><ellipse cx="65.5" cy="26.8945" fill="#ADD1B2" rx="11" ry="11" style="stroke:#181818;stroke-width:1.0;"/><path d="M68.4688,32.5352 Q67.8906,32.832 67.25,32.9727 Q66.6094,33.1289 65.9063,33.1289 Q63.4063,33.1289 62.0781,31.4883 Q60.7656,29.832 60.7656,26.707 Q60.7656,23.582 62.0781,21.9258 Q63.4063,20.2695 65.9063,20.2695 Q66.6094,20.2695 67.25,20.4258 Q67.9063,20.582 68.4688,20.8789 L68.4688,23.5977 Q67.8438,23.0195 67.25,22.7539 Q66.6563,22.4727 66.0313,22.4727 Q64.6875,22.4727 64,23.5508 Q63.3125,24.6133 63.3125,26.707 Q63.3125,28.8008 64,29.8789 Q64.6875,30.9414 66.0313,30.9414 Q66.6563,30.9414 67.25,30.6758 Q67.8438,30.3945 68.4688,29.8164 L68.4688,32.5352 Z " fill="#000000"/><text fill="#D9B8FF" font-family="Helvetica" font-size="17" lengthAdjust="spacing" textLength="71" x="84.5" y="32.7798">resource</text></g><!--reverse link azure_proxy_resource to azure_machine_learning_code_version_base--><g id="link_azure_proxy_resource_azure_machine_learning_code_version_base"><path codeLine="38" d="M447,65.05 C447,95.57 447,136.9 447,167.46 " fill="none" id="azure_proxy_resource-backto-azure_machine_learning_code_version_base" style="stroke:#FFAF37;stroke-width:2.0;"/><polygon fill="none" points="447,47.05,441,65.05,453,65.05,447,47.05" style="stroke:#FFAF37;stroke-width:2.0;"/></g><!--reverse link azure_machine_learning_code_version_base to azure_machine_learning_workspace_code_version--><g id="link_azure_machine_learning_code_version_base_azure_machine_learning_workspace_code_version"><path codeLine="39" d="M413.1811,220.0897 C380.3211,250.6097 329.61,297.69 296.7,328.25 " fill="none" id="azure_machine_learning_code_version_base-backto-azure_machine_learning_workspace_code_version" style="stroke:#FFAF37;stroke-width:2.0;"/><polygon fill="none" points="426.37,207.84,409.0979,215.6934,417.2644,224.4859,426.37,207.84" style="stroke:#FFAF37;stroke-width:2.0;"/></g><!--reverse link microsoft_resource to azure_machine_learning_workspace_code_version--><g id="link_microsoft_resource_azure_machine_learning_workspace_code_version"><path codeLine="40" d="M140.5076,220.166 C172.9876,250.686 223.01,297.69 255.54,328.25 " fill="none" id="microsoft_resource-backto-azure_machine_learning_workspace_code_version" style="stroke:#FFAF37;stroke-width:2.0;"/><polygon fill="none" points="127.39,207.84,136.3989,224.5385,144.6162,215.7935,127.39,207.84" style="stroke:#FFAF37;stroke-width:2.0;"/></g><!--reverse link resource to microsoft_resource--><g id="link_resource_microsoft_resource"><path codeLine="41" d="M107,65.05 C107,95.57 107,136.9 107,167.46 " fill="none" id="resource-backto-microsoft_resource" style="stroke:#FFAF37;stroke-width:2.0;"/><polygon fill="none" points="107,47.05,101,65.05,113,65.05,107,47.05" style="stroke:#FFAF37;stroke-width:2.0;"/></g><!--SRC=[dP9FJy904CNl_HIRU2O1YGA95oGnUY56l3VJtLcwQRlJp6v1KB-xHTJq7uLudVURD-zjDZOA1MQvtuaCimZP1IunDWU6JCoPQRkWb5XSQGrwF6cA3sJzMM096Of7J3VeZOGcyHeRcLXqJbnNf7kGoPgfiEfexnciAoMqla8jKd1kxZsRgF1O2QDcqLJh9jaqlHghqUGMMnYnGlv1XiEX6isQoDbJlRt_Y9NPenXL7sr97binMoU-gTwK1w8IibNqLp-PyHcKCdOjRYgpbsCcjiYr-Ie6HTi3hI5rrJFE8oFvNOwBLYkSJPMUTC9Ff-107fvEmBvW33EGiR4OfWXio-kX98NXflp3XcmOWKFn7WIV_JjRugJyM19hs-t5dEbj5p8wAbZMZ3CZcHnftwdMPvrUTn-3mU3YJi75vNjzkti77MN-OzDORhi6Nm00]--></g></svg>

<svg xmlns="http://www.w3.org/2000/svg" width="659" height="374" viewBox="0 0 659 374"><rect width="411" height="39.789" x="241.5" y="167.79" fill="#3D176E" rx="2.5" ry="2.5" style="stroke:#000d19;stroke-width:.5"/><circle cx="256.5" cy="187.685" r="11" fill="#ADD1B2" style="stroke:#181818;stroke-width:1"/><path d="M259.469 193.325q-.578.297-1.219.438-.64.156-1.344.156-2.5 0-3.828-1.64-1.312-1.657-1.312-4.782t1.312-4.781q1.328-1.656 3.828-1.656.703 0 1.344.156.656.156 1.219.453v2.719q-.625-.578-1.219-.844-.594-.281-1.219-.281-1.344 0-2.031 1.078-.687 1.062-.687 3.156t.687 3.172q.688 1.062 2.031 1.062.625 0 1.219-.265.594-.281 1.219-.86z"/><text x="275.5" y="193.57" fill="#D9B8FF" font-family="Helvetica" font-size="17" textLength="369">azure_machine_learning_code_version_base</text><rect width="461" height="39.789" x="45.5" y="328.58" fill="#3D176E" rx="2.5" ry="2.5" style="stroke:#000d19;stroke-width:.5"/><circle cx="60.5" cy="348.474" r="11" fill="#ADD1B2" style="stroke:#181818;stroke-width:1"/><path d="M63.469 354.115q-.578.297-1.219.438-.64.156-1.344.156-2.5 0-3.828-1.64-1.312-1.657-1.312-4.782t1.312-4.781q1.328-1.656 3.828-1.656.703 0 1.344.156.656.156 1.219.453v2.719q-.625-.579-1.219-.844-.594-.281-1.219-.281-1.343 0-2.031 1.078-.687 1.062-.687 3.156t.687 3.172q.688 1.062 2.031 1.062.625 0 1.219-.265.594-.281 1.219-.86z"/><text x="79.5" y="354.36" fill="#D9B8FF" font-family="Helvetica" font-size="17" textLength="419">azure_machine_learning_workspace_code_version</text><rect width="224" height="39.789" x="335" y="7" fill="#3D176E" rx="2.5" ry="2.5" style="stroke:#000d19;stroke-width:.5"/><circle cx="350" cy="26.895" r="11" fill="#ADD1B2" style="stroke:#181818;stroke-width:1"/><path d="M352.969 32.535q-.578.297-1.219.438-.64.156-1.344.156-2.5 0-3.828-1.64-1.312-1.657-1.312-4.782t1.312-4.781q1.328-1.656 3.828-1.656.703 0 1.344.156.656.156 1.219.453v2.719q-.625-.578-1.219-.844-.594-.281-1.219-.281-1.344 0-2.031 1.078-.687 1.062-.687 3.156t.687 3.172q.688 1.062 2.031 1.062.625 0 1.219-.265.594-.281 1.219-.86z"/><text x="369" y="32.78" fill="#D9B8FF" font-family="Helvetica" font-size="17" textLength="182">azure_proxy_resource</text><rect width="200" height="39.789" x="7" y="167.79" fill="#3D176E" rx="2.5" ry="2.5" style="stroke:#000d19;stroke-width:.5"/><circle cx="22" cy="187.685" r="11" fill="#ADD1B2" style="stroke:#181818;stroke-width:1"/><path d="M24.969 193.325q-.578.297-1.219.438-.64.156-1.344.156-2.5 0-3.828-1.64-1.312-1.657-1.312-4.782t1.312-4.781q1.328-1.656 3.828-1.656.703 0 1.344.156.656.156 1.219.453v2.719q-.625-.578-1.219-.844-.594-.281-1.219-.281-1.343 0-2.031 1.078-.687 1.062-.687 3.156t.687 3.172q.688 1.062 2.031 1.062.625 0 1.219-.265.594-.281 1.219-.86z"/><text x="41" y="193.57" fill="#D9B8FF" font-family="Helvetica" font-size="17" textLength="158">microsoft_resource</text><rect width="113" height="39.789" x="50.5" y="7" fill="#3D176E" rx="2.5" ry="2.5" style="stroke:#000d19;stroke-width:.5"/><circle cx="65.5" cy="26.895" r="11" fill="#ADD1B2" style="stroke:#181818;stroke-width:1"/><path d="M68.469 32.535q-.578.297-1.219.438-.64.156-1.344.156-2.5 0-3.828-1.64-1.312-1.657-1.312-4.782t1.312-4.781q1.328-1.656 3.828-1.656.703 0 1.344.156.656.156 1.219.453v2.719q-.625-.578-1.219-.844-.594-.281-1.219-.281-1.344 0-2.031 1.078-.687 1.062-.687 3.156T64 29.879q.688 1.062 2.031 1.062.625 0 1.219-.265.594-.281 1.219-.86z"/><text x="84.5" y="32.78" fill="#D9B8FF" font-family="Helvetica" font-size="17" textLength="71">resource</text><path fill="none" d="M447 65.05v102.41m0-120.41-6 18h12zm-33.819 173.04c-32.86 30.52-83.571 77.6-116.481 108.16m129.67-120.41-17.272 7.853 8.166 8.793zm-285.862 12.326c32.48 30.52 82.502 77.524 115.032 108.084M127.39 207.84l9.009 16.698 8.217-8.745zM107 65.05v102.41m0-120.41-6 18h12z" style="stroke:#ffaf37;stroke-width:2"/></svg>
